apps/www/public/images/ga/partners/resend--light.svg

<svg width="333" height="70" viewBox="0 0 333 70" fill="none" xmlns="http://www.w3.org/2000/svg">
<g clip-path="url(#clip0_868_2044)">
<path d="M0.861328 68.9884V0.48584H28.7014C43.7448 0.48584 53.8062 9.39124 53.8062 23.2875C53.8062 32.095 49.215 39.141 42.0842 42.5661L55.5646 68.9884H39.3489L27.8223 45.9912H15.514V68.9884H0.861328ZM27.5291 12.7184H15.514V33.7586H27.5291C34.4648 33.7586 38.8606 29.6485 38.8606 23.2875C38.8606 16.8287 34.4648 12.7184 27.5291 12.7184ZM84.6973 69.5756C67.9933 69.5756 57.9319 59.496 57.9319 43.9362C57.9319 28.2784 68.1887 18.1008 83.7204 18.1008C98.7638 18.1008 108.923 27.4955 109.118 42.2724C109.118 43.7405 109.021 45.404 108.728 46.9699H72.2914V47.6548C72.5845 54.7988 77.1757 59.1045 84.1112 59.1045C89.6792 59.1045 93.5867 56.658 94.7588 51.9608H108.337C106.774 61.7467 98.0801 69.5756 84.6973 69.5756ZM72.5845 37.9666H95.2473C94.2704 31.8013 90.07 28.3762 83.8182 28.3762C77.8594 28.3762 73.366 31.997 72.5845 37.9666ZM113.92 52.2543H127.009C127.498 56.658 131.307 59.6917 138.048 59.6917C143.811 59.6917 147.327 57.8324 147.327 54.3093C147.327 50.1993 143.909 49.9055 135.801 48.8292C124.079 47.4591 114.994 44.8169 114.994 34.4435C114.994 24.4618 123.688 17.9051 136.582 18.003C150.063 18.003 159.343 23.9724 160.026 34.2478H146.839C146.448 30.2355 142.639 27.789 137.071 27.789C131.698 27.789 128.181 29.7463 128.181 32.9757C128.181 36.7922 132.479 37.1837 139.708 38.0643C151.235 39.2387 160.808 41.8809 160.808 53.2329C160.808 63.2148 151.43 69.5756 137.95 69.5756C123.981 69.5756 114.506 63.0191 113.92 52.2543ZM192.875 69.5756C176.171 69.5756 166.109 59.496 166.109 43.9362C166.109 28.2784 176.367 18.1008 191.898 18.1008C206.942 18.1008 217.101 27.4955 217.296 42.2724C217.296 43.7405 217.198 45.404 216.906 46.9699H180.469V47.6548C180.762 54.7988 185.353 59.1045 192.289 59.1045C197.857 59.1045 201.764 56.658 202.937 51.9608H216.515C214.952 61.7467 206.258 69.5756 192.875 69.5756ZM180.762 37.9666H203.425C202.448 31.8013 198.248 28.3762 191.996 28.3762C186.037 28.3762 181.544 31.997 180.762 37.9666ZM253.64 18.1008C264.484 18.1008 273.763 23.8746 273.763 41.0982V68.9884H259.99V42.4681C259.99 33.9543 256.765 29.4528 249.829 29.4528C242.699 29.4528 238.596 34.5415 238.596 43.251V68.9884H224.823V18.688H236.838L238.109 24.951C241.331 21.0367 245.924 18.1008 253.64 18.1008ZM318.688 24.951V0.48584H332.461V68.9884H320.446L319.078 62.0404C315.756 66.3462 310.873 69.5756 303.644 69.5756C290.164 69.5756 280.298 59.6917 280.298 43.7405C280.298 28.1804 290.164 18.1008 303.547 18.1008C310.481 18.1008 315.463 20.841 318.688 24.951ZM306.672 58.3216C314.195 58.3216 318.882 52.45 318.882 43.9362C318.882 35.3244 314.195 29.3548 306.672 29.3548C299.15 29.3548 294.364 35.2264 294.364 43.8382C294.364 52.45 299.15 58.3216 306.672 58.3216Z" fill="#171717"/>
</g>
<defs>
<clipPath id="clip0_868_2044">
<rect width="333" height="70" fill="white"/>
</clipPath>
</defs>
</svg>

<svg xmlns="http://www.w3.org/2000/svg" width="333" height="70" fill="none" viewBox="0 0 333 70"><g clip-path="url(#a)"><path fill="#171717" d="M.861 68.988V.486h27.84c15.044 0 25.105 8.905 25.105 22.802 0 8.807-4.591 15.853-11.722 19.278l13.48 26.422H39.35L27.822 45.991H15.514v22.997zm26.668-56.27H15.514v21.04h12.015c6.936 0 11.332-4.11 11.332-10.47 0-6.46-4.396-10.57-11.332-10.57m57.168 56.858c-16.704 0-26.765-10.08-26.765-25.64 0-15.658 10.257-25.835 25.788-25.835 15.044 0 25.203 9.395 25.398 24.171 0 1.468-.097 3.132-.39 4.698H72.291v.685c.294 7.144 4.885 11.45 11.82 11.45 5.568 0 9.476-2.447 10.648-7.144h13.578c-1.563 9.786-10.257 17.615-23.64 17.615m-12.112-31.61h22.662c-.977-6.165-5.177-9.59-11.429-9.59-5.959 0-10.452 3.621-11.233 9.59m41.335 14.288h13.089c.489 4.404 4.298 7.438 11.039 7.438 5.763 0 9.279-1.86 9.279-5.383 0-4.11-3.418-4.403-11.526-5.48-11.722-1.37-20.807-4.012-20.807-14.385 0-9.982 8.694-16.539 21.588-16.441 13.481 0 22.761 5.97 23.444 16.245h-13.187c-.391-4.012-4.2-6.459-9.768-6.459-5.373 0-8.89 1.957-8.89 5.187 0 3.816 4.298 4.208 11.527 5.088 11.527 1.175 21.1 3.817 21.1 15.169 0 9.982-9.378 16.343-22.858 16.343-13.969 0-23.444-6.557-24.03-17.322m78.955 17.322c-16.704 0-26.766-10.08-26.766-25.64 0-15.658 10.258-25.835 25.789-25.835 15.044 0 25.203 9.395 25.398 24.171 0 1.468-.098 3.132-.39 4.698h-36.437v.685c.293 7.144 4.884 11.45 11.82 11.45 5.568 0 9.475-2.447 10.648-7.144h13.578c-1.563 9.786-10.257 17.615-23.64 17.615m-12.113-31.61h22.663c-.977-6.165-5.177-9.59-11.429-9.59-5.959 0-10.452 3.621-11.234 9.59m72.878-19.865c10.844 0 20.123 5.774 20.123 22.997v27.89H259.99v-26.52c0-8.514-3.225-13.015-10.161-13.015-7.13 0-11.233 5.089-11.233 13.798v25.737h-13.773v-50.3h12.015l1.271 6.263c3.222-3.914 7.815-6.85 15.531-6.85m65.048 6.85V.486h13.773v68.502h-12.015l-1.368-6.948c-3.322 4.306-8.205 7.536-15.434 7.536-13.48 0-23.346-9.884-23.346-25.835 0-15.56 9.866-25.64 23.249-25.64 6.934 0 11.916 2.74 15.141 6.85m-12.016 33.37c7.523 0 12.21-5.871 12.21-14.385 0-8.612-4.687-14.581-12.21-14.581-7.522 0-12.308 5.871-12.308 14.483s4.786 14.484 12.308 14.484"/></g><defs><clipPath id="a"><path fill="#fff" d="M0 0h333v70H0z"/></clipPath></defs></svg>
